!!!COM: Anon.
!!!OTL: Quando eu era costureira
!!!OTL: Romanceiro Folclorico do Brasil
!!!CNT: Brasil
!!!OCY: Brasil
!!!ODT: <1971///
!!!PSR: Irmaos Vitale
!!!PSP: Sao Paulo, Brasil
!!!PDT: 1950///
!!!PPE: Rossini Tavares de Lima
!!!PPG: page 45-46
!! Romance: Costureira Ou Modista
!! Place: Bairro da Barra Funda, Sao Paulo, Brasil
**kern
*clefG2
*k[]
*M3/4
*MM110
8c
8d
=
4e
4g
8c
8d
=
4c
4B
8d
8e
=
4f
4a
8d
8e
=
4d
4c
8g
8a
=
4b
4a
8f
8d
=
4c
4g
8d
8e
=
4f
4a
8d
8e
=
4d
4c
==
*-
